X:1
T:Etude 16, Op 176
T:Jean-Baptiste Duvernoy c. 1802 – c. 1880 
%%score { ( 1 2 ) | 3 }
L:1/8
Q:1/4=116
M:4/4
K:G
V:1 treble nm="Piano" snm="Pno."
V:2 treble 
V:3 bass 
V:1
"^Allegretto"!p! z (d^cd edcd) | z (d^cd edcd) | z (d^cd edcd) | z (d^cd edcd) | z (gfg agfg) | %5
 z (gfg agfg) |!f! z (gfg agfg) |!>(! (fgag fedc)!>)! |!p! z (d^cd edcd) | z (d^cd edcd) | %10
 z (d^cd edcd) | z (d^cd edcd) | z (gfg agfg) | z (gfg agfg) | z (f^ef gfef) | z (b^ab c'bab) | %16
 z (a^ga baga) | z (gfg agfg) | z (f^ef gfef) |!f! z (b^ab c'bab | .g) (gfg agfg | .d) (d^cd edcd | %22
 .B) (B^AB cBAB | G4) z4 |] %24
V:2
 !>!B8 | !>!A8 | !>!!courtesy!=c8 | !>!B8 | !>!d8 | !>!e8 | !>!e8 | x8 | !>!B8 | !>!A8 | %10
 !>!!courtesy!=c8 | !>!B8 | !>!d8 | !>!e8 | !>!d8 | !>!g8 | !>!e8 | !>!d8 | !>!d8 | !>!g8 | x8 | %21
 x8 | x8 | x8 |] %24
V:3
!pp! [G,D]8 | [F,D]8 | [F,D]8 | [G,D]8 | [B,,G,]8 | [C,G,]8 |!mp! [^C,A,]8 | [D,A,]4 z4 | %8
!pp! G,4 D4 | F,4 D4 | A,4 D4 | G,4 D4 | B,,4 G,4 | C,4 G,4 | D,4 C4 | C,4 B,4 | C,4 A,4 | %17
 C,4 B,4 | D,4 C4 |!mp! ([G,B,]4 D4) | ([G,B,]4 D4) | ([G,B,]4 D4) | ([G,B,]4 D4 | [G,B,]4) z4 |] %24

